src/assets/hero/crane.svg

<svg xmlns="http://www.w3.org/2000/svg" width="440" height="392" fill="none" viewBox="0 0 440 392"><path fill="#ff7a9d" d="m115.402 154.979-36.722 27.97 48.614-22.376-2.798 7.692 5.246-2.797 31.476 97.894 25.531-17.131-8.393-1.049-15.039-12.936 13.989-19.579-41.968-53.492-9.443-2.447z"/><path fill="#ffa7be" d="m162.967 232.246 49.663-68.177-9.443 54.891 136.748 45.451-161.579-19.229zM119.25 31.913l6.295 124.814 9.793 2.448 30.777 39.157 18.536-12.936zM83.226 185.396l-4.546-2.447 48.963-22.725-3.147 8.041z"/><path fill="#ec436f" d="m175.908 214.415-9.793-16.083 46.166-31.816zM152.475 253.223l-30.427-83.91 7.694-3.845 28.329 87.755zM250.402 198.332l-4.197-2.797 114.715-89.503-88.135 93.699z"/><path fill="url(#a)" d="M183.602 186.445 119.25 31.913l110.168 107.683 1.049 43.003-18.536-15.733z"/><path fill="url(#b)" d="m202.488 219.659 9.443-52.793 38.472 31.466z"/><path fill="url(#c)" d="m250.403 198.332-47.915 21.327 137.448 45.101-58.756-64.68z"/><path fill="url(#d)" d="m162.617 232.596 49.313-65.729-9.093 52.443 137.098 45.451-161.929-19.579z"/><path fill="url(#e)" d="M183.952 186.096 119.25 31.913l6.295 124.814 9.793 2.448 30.777 39.157z"/><path fill="url(#f)" d="M98.545 343.928c2.493-.128 4.218-.384 4.218-3.772v-23.844h-4.538v-.319c1.534 0 3.004-.064 4.538-.192v-5.05c0-12.465 10.995-13.68 14.575-13.68 5.753 0 9.653 3.26 9.653 6.84 0 2.173-1.47 5.114-5.178 5.114-3.196 0-5.114-2.237-5.114-5.05 0-2.877 2.046-4.539 3.835-5.434a4.4 4.4 0 0 0-2.62-.831c-4.795 0-4.795 5.498-4.795 10.74v7.223h10.356v.639h-10.356v23.844c0 3.388 3.069 3.644 6.329 3.772v.511c-2.238-.064-19.178-.064-20.903 0zm44.75-18.794c0-4.155-.447-9.717-4.986-9.717-2.045 0-3.963 1.023-5.625 2.43 1.79.447 3.644 2.109 3.644 4.794 0 2.813-2.11 5.114-5.114 5.114s-4.986-2.301-4.986-5.114c0-3.963 4.027-7.927 14.51-7.927 12.913 0 12.913 6.009 12.913 11.826v12.785c0 3.132 1.982 4.027 4.858 4.091v.512c-2.62-.128-12.976.703-14.766 1.022h-.448v-5.497c-1.598 1.918-5.05 5.497-9.396 5.497-2.238 0-7.799-.767-7.799-6.839 0-7.224 7.799-8.502 17.195-10.037zm-6.584 10.675c0 3.58.895 4.731 3.005 4.731.959 0 1.79-.192 3.579-1.918v-9.908c-6.008 1.086-6.584 4.155-6.584 7.095m23.693 8.119c2.493-.128 4.219-.384 4.219-3.772v-38.035c0-3.132-1.981-4.027-4.858-4.091v-.511c2.621.127 12.977-.704 14.766-1.023h.448v43.66c0 3.388 1.726 3.644 4.219 3.772v.511c-1.726-.064-17.068-.064-18.794 0zm21.1 0c2.493-.128 4.219-.384 4.219-3.772v-38.035c0-3.132-1.982-4.027-4.858-4.091v-.511c2.621.127 12.977-.704 14.766-1.023h.448v43.66c0 3.388 1.726 3.644 4.219 3.772v.511c-1.726-.064-17.068-.064-18.794 0zm36.57 1.022c-7.863 0-14.703-5.305-14.703-15.086 0-9.588 6.648-15.214 15.214-15.214 7.671 0 11.443 4.859 11.443 10.42v.639h-16.109c-.064.639-.064 1.279-.064 1.918 0 11.634 4.219 13.744 8.246 13.744 3.899 0 6.84-1.535 8.758-5.05l.383.255c-2.621 4.795-6.328 8.374-13.168 8.374m-4.155-19.88 5.433-.256c.703-.064 1.087-.128 1.087-2.045 0-3.26-1.023-7.479-2.813-7.479s-3.388 3.771-3.707 9.78m30.447 19.88c-6.968 0-6.968-5.753-6.968-9.333v-19.305h-4.091v-.639h4.091v-2.621c3.261-1.086 7.48-3.068 9.845-5.497h.511v8.118h8.566l-.064.639h-8.502v17.771c0 5.434.192 7.096 1.662 7.096 1.534 0 3.196-2.621 4.155-5.689l.448.191c-.831 2.877-2.238 9.269-9.653 9.269m24.409 0c-6.968 0-6.968-5.753-6.968-9.333v-19.305h-4.091v-.639h4.091v-2.621c3.26-1.086 7.479-3.068 9.844-5.497h.512v8.118h8.566l-.064.639h-8.502v17.771c0 5.434.191 7.096 1.662 7.096 1.534 0 3.196-2.621 4.155-5.689l.447.191c-.831 2.877-2.237 9.269-9.652 9.269m28.705 0c-7.863 0-14.703-5.305-14.703-15.086 0-9.588 6.648-15.214 15.214-15.214 7.671 0 11.442 4.859 11.442 10.42v.639h-16.108c-.064.639-.064 1.279-.064 1.918 0 11.634 4.219 13.744 8.246 13.744 3.899 0 6.84-1.535 8.758-5.05l.383.255c-2.621 4.795-6.328 8.374-13.168 8.374m-4.155-19.88 5.433-.256c.703-.064 1.087-.128 1.087-2.045 0-3.26-1.023-7.479-2.813-7.479s-3.388 3.771-3.707 9.78m19.516 18.858c2.493-.128 4.858-.384 4.858-3.772v-19.88c0-3.133-1.981-4.028-4.858-4.091v-.512c2.621.128 12.977-.703 14.766-1.023h.448v5.114h.128c2.365-2.109 5.561-5.178 9.013-5.178 2.941 0 4.922 2.11 4.922 4.795s-2.045 5.433-5.114 5.433c-2.045 0-4.858-1.15-5.753-6.073-.959.384-1.981 1.023-3.196 1.918v19.497c0 3.388 2.365 3.644 6.137 3.772v.511c-3.005-.064-19.625-.064-21.351 0z"/><defs><linearGradient id="a" x1="244.107" x2="146.89" y1="82.608" y2="124.586" gradientUnits="userSpaceOnUse"><stop stop-color="#ff9bbb"/><stop offset="1" stop-color="#ff507f"/></linearGradient><linearGradient id="b" x1="286.426" x2="195.145" y1="188.893" y2="174.898" gradientUnits="userSpaceOnUse"><stop stop-color="#ff9bbb"/><stop offset="1" stop-color="#ff507f"/></linearGradient><linearGradient id="c" x1="321.05" x2="202.231" y1="185.396" y2="219.006" gradientUnits="userSpaceOnUse"><stop stop-color="#ff9bbb"/><stop offset="1" stop-color="#ff507f"/></linearGradient><linearGradient id="d" x1="243.057" x2="150.742" y1="184.697" y2="238.916" gradientUnits="userSpaceOnUse"><stop stop-color="#ff9bbb"/><stop offset="1" stop-color="#ff507f"/></linearGradient><linearGradient id="e" x1="151.601" x2="165.057" y1="32.262" y2="239.588" gradientUnits="userSpaceOnUse"><stop stop-color="#ff9bbb"/><stop offset="1" stop-color="#ff507f"/></linearGradient><linearGradient id="f" x1="342.853" x2="96.745" y1="322.704" y2="322.704" gradientUnits="userSpaceOnUse"><stop stop-color="#ff507f"/><stop offset="1" stop-color="#ff9bbb"/></linearGradient></defs></svg>

<svg width="440" height="392" viewBox="0 0 440 392" fill="none" xmlns="http://www.w3.org/2000/svg">
<path d="M115.402 154.979L78.6797 182.949L127.294 160.573L124.496 168.265L129.742 165.468L161.218 263.362L186.749 246.231L178.356 245.182L163.317 232.246L177.306 212.667L135.338 159.175L125.895 156.728L115.402 154.979Z" fill="#FF7A9D"/>
<path d="M162.967 232.246L212.63 164.069L203.187 218.96L339.935 264.411L178.356 245.182L162.967 232.246Z" fill="#FFA7BE"/>
<path d="M119.25 31.9125L125.545 156.727L135.338 159.175L166.115 198.332L184.651 185.396L119.25 31.9125Z" fill="#FFA7BE"/>
<path d="M83.2263 185.396L78.6797 182.949L127.643 160.224L124.496 168.265L83.2263 185.396Z" fill="#FFA7BE"/>
<path d="M175.908 214.415L166.115 198.332L212.281 166.516L175.908 214.415Z" fill="#EC436F"/>
<path d="M152.475 253.223L122.048 169.313L129.742 165.468L158.071 253.223H152.475Z" fill="#EC436F"/>
<path d="M250.402 198.332L246.205 195.535L360.92 106.032L272.785 199.731L250.402 198.332Z" fill="#EC436F"/>
<path d="M183.602 186.445L119.25 31.9125L229.418 139.596L230.467 182.599L211.931 166.866L183.602 186.445Z" fill="url(#paint0_linear_1_1123)"/>
<path d="M202.488 219.659L211.931 166.866L250.403 198.332L202.488 219.659Z" fill="url(#paint1_linear_1_1123)"/>
<path d="M250.403 198.332L202.488 219.659L339.936 264.76L281.18 200.08L250.403 198.332Z" fill="url(#paint2_linear_1_1123)"/>
<path d="M162.617 232.596L211.93 166.867L202.837 219.31L339.935 264.761L178.006 245.182L162.617 232.596Z" fill="url(#paint3_linear_1_1123)"/>
<path d="M183.952 186.096L119.25 31.9125L125.545 156.727L135.338 159.175L166.115 198.332L183.952 186.096Z" fill="url(#paint4_linear_1_1123)"/>
<path d="M98.5445 343.928C101.038 343.8 102.763 343.544 102.763 340.156V316.312H98.2249V315.993C99.759 315.993 101.229 315.929 102.763 315.801V310.751C102.763 298.286 113.758 297.071 117.338 297.071C123.091 297.071 126.991 300.331 126.991 303.911C126.991 306.084 125.521 309.025 121.813 309.025C118.617 309.025 116.699 306.788 116.699 303.975C116.699 301.098 118.745 299.436 120.534 298.541C119.831 298.03 118.936 297.71 117.914 297.71C113.119 297.71 113.119 303.208 113.119 308.45V315.673H123.475V316.312H113.119V340.156C113.119 343.544 116.188 343.8 119.448 343.928V344.439C117.21 344.375 100.27 344.375 98.5445 344.439V343.928ZM143.295 325.134C143.295 320.979 142.848 315.417 138.309 315.417C136.264 315.417 134.346 316.44 132.684 317.847C134.474 318.294 136.328 319.956 136.328 322.641C136.328 325.454 134.218 327.755 131.214 327.755C128.209 327.755 126.228 325.454 126.228 322.641C126.228 318.678 130.255 314.714 140.738 314.714C153.651 314.714 153.651 320.723 153.651 326.54V339.325C153.651 342.457 155.633 343.352 158.509 343.416V343.928C155.889 343.8 145.533 344.631 143.743 344.95H143.295V339.453C141.697 341.371 138.245 344.95 133.899 344.95C131.661 344.95 126.1 344.183 126.1 338.111C126.1 330.887 133.899 329.609 143.295 328.074V325.134ZM136.711 335.809C136.711 339.389 137.606 340.54 139.716 340.54C140.675 340.54 141.506 340.348 143.295 338.622V328.714C137.287 329.8 136.711 332.869 136.711 335.809ZM160.404 343.928C162.897 343.8 164.623 343.544 164.623 340.156V302.121C164.623 298.989 162.642 298.094 159.765 298.03V297.519C162.386 297.646 172.742 296.815 174.531 296.496H174.979V340.156C174.979 343.544 176.705 343.8 179.198 343.928V344.439C177.472 344.375 162.13 344.375 160.404 344.439V343.928ZM181.504 343.928C183.997 343.8 185.723 343.544 185.723 340.156V302.121C185.723 298.989 183.741 298.094 180.865 298.03V297.519C183.486 297.646 193.842 296.815 195.631 296.496H196.079V340.156C196.079 343.544 197.805 343.8 200.298 343.928V344.439C198.572 344.375 183.23 344.375 181.504 344.439V343.928ZM218.074 344.95C210.211 344.95 203.371 339.645 203.371 329.864C203.371 320.276 210.019 314.65 218.585 314.65C226.256 314.65 230.028 319.509 230.028 325.07V325.709H213.919C213.855 326.348 213.855 326.988 213.855 327.627C213.855 339.261 218.074 341.371 222.101 341.371C226 341.371 228.941 339.836 230.859 336.321L231.242 336.576C228.621 341.371 224.914 344.95 218.074 344.95ZM213.919 325.07L219.352 324.814C220.055 324.75 220.439 324.686 220.439 322.769C220.439 319.509 219.416 315.29 217.626 315.29C215.836 315.29 214.238 319.061 213.919 325.07ZM244.366 344.95C237.398 344.95 237.398 339.197 237.398 335.617V316.312H233.307V315.673H237.398V313.052C240.659 311.966 244.878 309.984 247.243 307.555H247.754V315.673H256.32L256.256 316.312H247.754V334.083C247.754 339.517 247.946 341.179 249.416 341.179C250.95 341.179 252.612 338.558 253.571 335.49L254.019 335.681C253.188 338.558 251.781 344.95 244.366 344.95ZM268.775 344.95C261.807 344.95 261.807 339.197 261.807 335.617V316.312H257.716V315.673H261.807V313.052C265.067 311.966 269.286 309.984 271.651 307.555H272.163V315.673H280.729L280.665 316.312H272.163V334.083C272.163 339.517 272.354 341.179 273.825 341.179C275.359 341.179 277.021 338.558 277.98 335.49L278.427 335.681C277.596 338.558 276.19 344.95 268.775 344.95ZM297.48 344.95C289.617 344.95 282.777 339.645 282.777 329.864C282.777 320.276 289.425 314.65 297.991 314.65C305.662 314.65 309.433 319.509 309.433 325.07V325.709H293.325C293.261 326.348 293.261 326.988 293.261 327.627C293.261 339.261 297.48 341.371 301.507 341.371C305.406 341.371 308.347 339.836 310.265 336.321L310.648 336.576C308.027 341.371 304.32 344.95 297.48 344.95ZM293.325 325.07L298.758 324.814C299.461 324.75 299.845 324.686 299.845 322.769C299.845 319.509 298.822 315.29 297.032 315.29C295.242 315.29 293.644 319.061 293.325 325.07ZM312.841 343.928C315.334 343.8 317.699 343.544 317.699 340.156V320.276C317.699 317.143 315.718 316.248 312.841 316.185V315.673C315.462 315.801 325.818 314.97 327.607 314.65H328.055V319.764H328.183C330.548 317.655 333.744 314.586 337.196 314.586C340.137 314.586 342.118 316.696 342.118 319.381C342.118 322.066 340.073 324.814 337.004 324.814C334.959 324.814 332.146 323.664 331.251 318.741C330.292 319.125 329.27 319.764 328.055 320.659V340.156C328.055 343.544 330.42 343.8 334.192 343.928V344.439C331.187 344.375 314.567 344.375 312.841 344.439V343.928Z" fill="url(#paint5_linear_1_1123)"/>
<defs>
<linearGradient id="paint0_linear_1_1123" x1="244.107" y1="82.6076" x2="146.89" y2="124.586" gradientUnits="userSpaceOnUse">
<stop stop-color="#FF9BBB"/>
<stop offset="1" stop-color="#FF507F"/>
</linearGradient>
<linearGradient id="paint1_linear_1_1123" x1="286.426" y1="188.893" x2="195.145" y2="174.898" gradientUnits="userSpaceOnUse">
<stop stop-color="#FF9BBB"/>
<stop offset="1" stop-color="#FF507F"/>
</linearGradient>
<linearGradient id="paint2_linear_1_1123" x1="321.05" y1="185.396" x2="202.231" y2="219.006" gradientUnits="userSpaceOnUse">
<stop stop-color="#FF9BBB"/>
<stop offset="1" stop-color="#FF507F"/>
</linearGradient>
<linearGradient id="paint3_linear_1_1123" x1="243.057" y1="184.697" x2="150.742" y2="238.916" gradientUnits="userSpaceOnUse">
<stop stop-color="#FF9BBB"/>
<stop offset="1" stop-color="#FF507F"/>
</linearGradient>
<linearGradient id="paint4_linear_1_1123" x1="151.601" y1="32.2621" x2="165.057" y2="239.588" gradientUnits="userSpaceOnUse">
<stop stop-color="#FF9BBB"/>
<stop offset="1" stop-color="#FF507F"/>
</linearGradient>
<linearGradient id="paint5_linear_1_1123" x1="342.853" y1="322.704" x2="96.7451" y2="322.704" gradientUnits="userSpaceOnUse">
<stop stop-color="#FF507F"/>
<stop offset="1" stop-color="#FF9BBB"/>
</linearGradient>
</defs>
</svg>
